build/system/ArrowDownTwoOutline.svg

<svg xmlns="http://www.w3.org/2000/svg" fill="none" viewBox="0 0 24 24" focusable="false"><path d="M0 0H24V24H0z"/><path fill="#74767B" fill-rule="evenodd" d="M19.4657 1.7968C19.9488 1.27101 20.8028 1.36229 21.1639 1.97833C21.4001 2.38122 21.3453 2.89111 21.029 3.2347L17.6214 6.93638C17.4466 7.12621 17.4007 7.40143 17.5044 7.63772C17.608 7.874 17.8416 8.02661 18.0996 8.02661L22.3654 8.02661C22.7244 8.02661 23.0154 7.7356 23.0154 7.37661C23.0154 7.01763 22.7244 6.72661 22.3654 6.72661L19.5815 6.72661L21.9855 4.11517C22.6889 3.35101 22.8107 2.21697 22.2854 1.32092C21.4823 -0.0491807 19.583 -0.2522 18.5084 0.917189L18.1196 1.34027C17.8768 1.6046 17.8941 2.01579 18.1585 2.25869C18.4228 2.50159 18.834 2.48422 19.0769 2.21989L19.4657 1.7968ZM6.0308 11.02C5.8908 11.15 5.8208 11.32 5.8208 11.5C5.8208 11.66 5.8708 11.81 5.9908 11.94L11.4808 17.98C11.7608 18.29 12.2408 18.29 12.5208 17.98L18.0108 11.94C18.2508 11.67 18.2308 11.26 17.9708 11.02C17.7008 10.78 17.2908 10.79 17.0508 11.06L12.6508 15.8956L12.6508 5C12.6508 4.64102 12.3598 4.35 12.0008 4.35C11.6418 4.35 11.3508 4.64102 11.3508 5L11.3508 15.8956L6.9508 11.06C6.7108 10.8 6.3008 10.78 6.0308 11.02Z"/></svg>

<svg xmlns="http://www.w3.org/2000/svg" fill="none" viewBox="0 0 24 24" focusable="false"><path fill="#74767B" fill-rule="evenodd" d="M19.46 1.79a1.07 1.07 0 0 1 1.7.18c.23.41.18.92-.14 1.26l-3.4 3.7a.648.648 0 0 0 .47 1.09h4.27c.36 0 .65-.29.65-.65s-.29-.65-.65-.65h-2.78l2.4-2.61c.7-.76.83-1.9.3-2.79-.8-1.37-2.7-1.58-3.78-.41l-.39.43c-.24.26-.22.67.04.91.27.25.68.23.92-.04zM6.03 11.02c-.14.13-.21.3-.21.48 0 .16.05.31.17.44l5.49 6.04c.28.31.76.31 1.04 0l5.49-6.04c.24-.27.22-.68-.04-.92a.65.65 0 0 0-.92.04l-4.4 4.83V5c0-.36-.3-.65-.65-.65-.36 0-.65.29-.65.65v10.89l-4.4-4.83a.66.66 0 0 0-.92-.04"/></svg>
